static/fa/svgs/solid/plane-up.svg

<svg xmlns="http://www.w3.org/2000/svg" viewBox="0 0 512 512"><!--! Font Awesome Free 6.1.1 by @fontawesome - https://fontawesome.com License - https://fontawesome.com/license/free (Icons: CC BY 4.0, Fonts: SIL OFL 1.1, Code: MIT License) Copyright 2022 Fonticons, Inc.--><path d="M192 93.68C192 59.53 221 0 256 0c36 0 64 59.53 64 93.68V160l177.8 118.5c8.9 5.9 14.2 15.9 14.2 26.6v56.7c0 10.9-10.7 18.6-21.1 14.3l-170.9-57V400l57.6 43.2c4 3 6.4 6.9 6.4 12.8v41.1c0 8.6-6.3 14.9-14.9 14.9-.4 0-1.7-.2-3-.5L256 480l-110.1 31.5c-1.3.3-2.6.5-3.9.5-7.7 0-14-6.3-14-14.9V456c0-5.9 2.4-9.8 6.4-12.8L192 400v-80.9l-170.94 57C10.7 380.4 0 372.7 0 361.8v-56.7c0-10.7 5.347-20.7 14.25-26.6L192 160V93.68z"/></svg>

<svg xmlns="http://www.w3.org/2000/svg" viewBox="0 0 512 512"><!--! Font Awesome Free 6.1.1 by @fontawesome - https://fontawesome.com License - https://fontawesome.com/license/free (Icons: CC BY 4.0, Fonts: SIL OFL 1.1, Code: MIT License) Copyright 2022 Fonticons, Inc. --><path d="M192 93.68C192 59.53 221 0 256 0C292 0 320 59.53 320 93.68V160L497.8 278.5C506.7 284.4 512 294.4 512 305.1V361.8C512 372.7 501.3 380.4 490.9 376.1L320 319.1V400L377.6 443.2C381.6 446.2 384 450.1 384 456V497.1C384 505.7 377.7 512 369.1 512C368.7 512 367.4 511.8 366.1 511.5L256 480L145.9 511.5C144.6 511.8 143.3 512 142 512C134.3 512 128 505.7 128 497.1V456C128 450.1 130.4 446.2 134.4 443.2L192 400V319.1L21.06 376.1C10.7 380.4 0 372.7 0 361.8V305.1C0 294.4 5.347 284.4 14.25 278.5L192 160L192 93.68z"/></svg>
